public/assets/img/program1-6.svg

<svg width="31" height="40" viewBox="0 0 31 40" fill="none" xmlns="http://www.w3.org/2000/svg">
<path d="M29.7062 40H23.7031C23.3794 40 23.1171 39.7377 23.1171 39.4141C23.1171 39.0904 23.3794 38.8281 23.7031 38.8281H29.1203V1.17188H16.2148C15.8911 1.17188 15.6289 0.909609 15.6289 0.585938C15.6289 0.262266 15.8911 0 16.2148 0H29.7062C30.0299 0 30.2921 0.262266 30.2921 0.585938V39.4141C30.2921 39.7377 30.0299 40 29.7062 40Z" fill="#ACBDCE"/>
<path d="M21.1492 38.8281H1.17187V1.17188H13.6609C13.9846 1.17188 14.2469 0.909609 14.2469 0.585938C14.2469 0.262266 13.9846 0 13.6609 0H0.585937C0.262265 0 0 0.262266 0 0.585938V39.4141C0 39.7377 0.262265 40 0.585937 40H21.1492C21.4729 40 21.7352 39.7377 21.7352 39.4141C21.7352 39.0904 21.4728 38.8281 21.1492 38.8281Z" fill="#ACBDCE"/>
<path d="M27.2797 14.4648C27.6033 14.4648 27.8656 14.2026 27.8656 13.8789V5.9867C27.8012 5.29647 27.4236 4.91889 26.7328 4.85389C25.9443 4.7796 25.513 4.34803 25.439 3.55936C25.439 2.93475 24.9308 2.42655 24.3062 2.42655H5.98591C5.29544 2.49131 4.91786 2.86889 4.8531 3.55936C4.77904 4.34819 4.34779 4.77967 3.55935 4.85389C2.93474 4.85389 2.42654 5.36209 2.42654 5.9867V34.0133C2.49099 34.7041 2.86911 35.0817 3.56091 35.1461C4.27341 35.1461 4.8531 35.7261 4.8531 36.4391C4.8531 37.0637 5.3613 37.5719 5.98591 37.5719H24.3062C24.9308 37.5719 25.439 37.0637 25.439 36.4391C25.439 35.7261 26.019 35.1461 26.7328 35.1461C27.3574 35.1461 27.8656 34.6379 27.8656 34.0133V16.4328C27.8656 16.1091 27.6033 15.8469 27.2797 15.8469C26.956 15.8469 26.6937 16.1091 26.6937 16.4328V33.9745C25.3651 33.9948 24.2882 35.0715 24.2675 36.4H6.02466C6.00396 35.0718 4.92771 33.9952 3.59841 33.9745V6.02545C4.91349 6.00522 6.00443 4.91335 6.02466 3.59842H24.2675C24.2774 4.24256 24.5329 4.8467 24.989 5.30295C25.445 5.75983 26.049 6.01553 26.6936 6.02545V13.8789C26.6937 14.2026 26.956 14.4648 27.2797 14.4648Z" fill="#ACBDCE"/>
<path d="M22.4263 7.28031H7.86579C7.54212 7.28031 7.27985 7.54257 7.27985 7.86624C7.27985 8.18991 7.54212 8.45218 7.86579 8.45218H22.4262C22.7499 8.45218 23.0121 8.18991 23.0121 7.86624C23.0121 7.54257 22.7499 7.28031 22.4263 7.28031Z" fill="#ACBDCE"/>
<path d="M19.9995 10.879C20.3231 10.879 20.5854 10.6167 20.5854 10.2931C20.5854 9.9694 20.3231 9.70713 19.9995 9.70713H10.2926C9.96891 9.70713 9.70665 9.9694 9.70665 10.2931C9.70665 10.6167 9.96891 10.879 10.2926 10.879H19.9995Z" fill="#ACBDCE"/>
<path d="M15.1461 32.6374C15.4698 32.6374 15.732 32.3751 15.732 32.0515V31.3402C16.605 31.217 17.2787 30.465 17.2787 29.5586C17.2787 28.5665 16.4715 27.7593 15.4794 27.7593H14.8129C14.4669 27.7593 14.1855 27.4779 14.1855 27.1319C14.1855 26.786 14.467 26.5045 14.8129 26.5045H15.4084C15.6355 26.5045 15.8319 26.6507 15.8972 26.8682C15.9902 27.1782 16.3174 27.3542 16.6268 27.261C16.9368 27.168 17.1127 26.8413 17.0196 26.5313C16.8362 25.9201 16.3386 25.4799 15.7321 25.3632V24.639C15.7321 24.3153 15.4699 24.053 15.1462 24.053C14.8225 24.053 14.5602 24.3153 14.5602 24.639V25.3502C13.6873 25.4734 13.0136 26.2254 13.0136 27.1318C13.0136 28.124 13.8208 28.9311 14.8129 28.9311H15.4794C15.8254 28.9311 16.1068 29.2126 16.1068 29.5586C16.1068 29.9045 15.8253 30.1859 15.4794 30.1859H14.7277C14.5006 30.1859 14.3042 30.0397 14.2388 29.8222C14.1459 29.5122 13.8188 29.3365 13.5092 29.4294C13.1992 29.5224 13.0234 29.8491 13.1164 30.1591C13.3153 30.8221 13.8839 31.2839 14.5602 31.3497V32.0515C14.5602 32.375 14.8224 32.6374 15.1461 32.6374Z" fill="#ACBDCE"/>
<path d="M22.4263 14.5607H7.86579C7.54212 14.5607 7.27985 14.8229 7.27985 15.1466C7.27985 15.4703 7.54212 15.7325 7.86579 15.7325H22.4262C22.7499 15.7325 23.0121 15.4703 23.0121 15.1466C23.0121 14.8229 22.7499 14.5607 22.4263 14.5607Z" fill="#ACBDCE"/>
<path d="M23.0122 20.0025C23.0122 19.6788 22.7499 19.4166 22.4263 19.4166H7.86579C7.54212 19.4166 7.27985 19.6788 7.27985 20.0025C7.27985 20.3262 7.54212 20.5885 7.86579 20.5885H22.4262C22.7498 20.5885 23.0122 20.3262 23.0122 20.0025Z" fill="#ACBDCE"/>
<path d="M22.4263 16.8801H7.86579C7.54212 16.8801 7.27985 17.1424 7.27985 17.466C7.27985 17.7897 7.54212 18.052 7.86579 18.052H22.4262C22.7499 18.052 23.0121 17.7897 23.0121 17.466C23.0121 17.1424 22.7499 16.8801 22.4263 16.8801Z" fill="#ACBDCE"/>
</svg>

<svg width="31" height="40" fill="none" xmlns="http://www.w3.org/2000/svg"><path d="M29.706 40h-6.003a.586.586 0 1 1 0-1.172h5.417V1.172H16.215a.586.586 0 1 1 0-1.172h13.491c.324 0 .586.262.586.586v38.828a.586.586 0 0 1-.586.586ZM21.15 38.828H1.171V1.172H13.66a.586.586 0 1 0 0-1.172H.586A.586.586 0 0 0 0 .586v38.828c0 .324.262.586.586.586h20.563a.586.586 0 1 0 0-1.172Z" fill="#ACBDCE"/><path d="M27.28 14.465a.586.586 0 0 0 .586-.586V5.987c-.065-.69-.442-1.068-1.133-1.133-.789-.074-1.22-.506-1.294-1.295 0-.624-.508-1.132-1.133-1.132H5.986c-.69.064-1.068.442-1.133 1.132-.074.79-.505 1.22-1.294 1.295-.624 0-1.132.508-1.132 1.133v28.026c.064.691.442 1.069 1.134 1.133.712 0 1.292.58 1.292 1.293 0 .625.508 1.133 1.133 1.133h18.32c.625 0 1.133-.508 1.133-1.133 0-.713.58-1.293 1.294-1.293.624 0 1.133-.508 1.133-1.133v-17.58a.586.586 0 1 0-1.172 0v17.541a2.468 2.468 0 0 0-2.427 2.426H6.025a2.468 2.468 0 0 0-2.427-2.425V6.024a2.487 2.487 0 0 0 2.427-2.427h18.242a2.45 2.45 0 0 0 .722 1.705c.456.457 1.06.713 1.705.722v7.854c0 .324.262.586.586.586Z" fill="#ACBDCE"/><path d="M22.426 7.28H7.866a.586.586 0 1 0 0 1.172h14.56a.586.586 0 1 0 0-1.172ZM20 10.879a.586.586 0 1 0 0-1.172h-9.707a.586.586 0 1 0 0 1.172H20ZM15.146 32.637a.586.586 0 0 0 .586-.586v-.71a1.802 1.802 0 0 0 1.547-1.782c0-.992-.808-1.8-1.8-1.8h-.666a.628.628 0 0 1 0-1.255h.595c.228 0 .424.147.49.364a.586.586 0 1 0 1.122-.337 1.67 1.67 0 0 0-1.288-1.168v-.724a.586.586 0 1 0-1.172 0v.711a1.802 1.802 0 0 0-1.546 1.782c0 .992.807 1.8 1.799 1.8h.666a.628.628 0 0 1 0 1.254h-.751a.507.507 0 0 1-.49-.364.586.586 0 0 0-1.122.337 1.67 1.67 0 0 0 1.444 1.19v.702c0 .324.262.586.586.586ZM22.426 14.56H7.866a.586.586 0 1 0 0 1.172h14.56a.586.586 0 1 0 0-1.171ZM23.012 20.003a.586.586 0 0 0-.586-.586H7.866a.586.586 0 1 0 0 1.171h14.56a.586.586 0 0 0 .586-.585ZM22.426 16.88H7.866a.586.586 0 1 0 0 1.172h14.56a.586.586 0 1 0 0-1.172Z" fill="#ACBDCE"/></svg>
